resources/images/pen.svg

<svg xmlns="http://www.w3.org/2000/svg" width="285" height="427" viewBox="0 0 285 427"><path fill="#2E3432" d="M155.607 201.884l-19.766-15.2c2.197 4.136 8.785 9.204 19.766 15.2m-69.272 147.84l-7.5-2.514c7.266 4.125 12.235 5.797 14.906 5.013l-7.406-2.499m-7.5-2.514l-11.861-9.776c.46 1.589 1.71 3.059 3.752 4.41 2.866 2.137 5.569 3.927 8.109 5.366m87.757-141.816l-10.984-3.51c3.895 2.125 7.314 3.765 10.257 4.922 5.259 2.203 8.896 2.872 10.909 2.006l-10.182-3.418m72.926-147.539l-9.941-4.242c9.972 5.722 16.58 8.563 19.827 8.521l-9.886-4.279z"/><path fill="#323836" d="M86.335 349.724l7.406 2.499 83.032-143.411c-2.013.866-5.65.197-10.909-2.006-24.315 45.633-50.823 93.273-79.529 142.918M244.491 72.056c-1.998.42-5.141-.323-9.427-2.228-20.484 43-43.309 88.187-68.473 135.565l10.182 3.418 67.718-136.755m-4.973-14.201l9.886 4.28c2.175-15.18-1.456-25.327-10.891-30.442 4.394 8.437 4.729 17.157 1.005 26.162z"/><path fill="#D3A665" d="M57.181 396.981c-.274-.08-.425-.139-.45-.175l-.22.153c.337.092.656.193.956.312l.055-.038c.125.022.249.044.374.064a2.666 2.666 0 0 1-.715-.316m-7.502-4.152a.597.597 0 0 1 .209.181c1.869 1.419 4.15 2.684 6.843 3.797.025.036.176.095.45.175.202.13.44.237.715.316a.81.81 0 0 1 .225.089l.132.07.148-.021.483-.012-.017.093-.056.039c.375.064.754.1 1.137.103l33.792-45.436c-2.671.784-7.641-.888-14.906-5.013-2.54-1.438-5.243-3.229-8.109-5.366L50.04 392.412l-1.803-.701c.418.361.899.733 1.442 1.118M244.491 72.056l4.912-9.921c-3.247.042-9.855-2.799-19.827-8.521l-5.33 10.377c4.179 2.527 7.785 4.472 10.818 5.838 4.287 1.904 7.429 2.647 9.427 2.227m-34.009-28.134l-5.762 10.926 4.843 3.397L215.431 47l-4.949-3.078m-48.238 113.984c2.773 2.475 6.202 4.245 10.281 5.313l51.721-99.228 5.33-10.377c-2.473-3.833-5.824-6.041-10.055-6.62l-.086 1.043-57.191 109.869z"/><path fill="#333" d="M49.882 404.317c.93.004 2.403-.893 4.417-2.691.205-.252 1.572-1.65 4.102-4.19l-.148.021-.132-.07a.798.798 0 0 0-.225-.089 48.688 48.688 0 0 1-.374-.064l-.055.038c-.3-.118-.619-.22-.956-.312.073-.051.146-.103.22-.153-2.693-1.113-4.974-2.378-6.843-3.797-.682 2.062-1.043 4.037-1.084 5.921-.235 2.623.125 4.418 1.078 5.386z"/><path fill="#FCE9BE" d="M48.238 391.711l1.803.701 20.685-50.568c-2.042-1.352-3.292-2.821-3.752-4.41l-18.736 54.277m110.947-237.227c.899 1.28 1.92 2.42 3.06 3.422l57.191-109.868.086-1.043a16.57 16.57 0 0 0-4.091.006l-5.867 11.245-50.379 96.238z"/><path fill="#3C4441" d="M165.864 206.806c-2.942-1.157-6.362-2.797-10.257-4.922-10.981-5.997-17.57-11.064-19.766-15.2l-68.868 150.75 11.861 9.776 7.5 2.514c28.707-49.645 55.215-97.285 79.53-142.918m72.649-175.113c-11.58-4.046-20.922.028-28.03 12.229L215.431 47a16.57 16.57 0 0 1 4.091-.006c4.23.579 7.582 2.786 10.055 6.62l9.941 4.242c3.724-9.006 3.389-17.726-1.005-26.163m-65.988 131.525c-4.079-1.067-7.508-2.838-10.281-5.313a19.319 19.319 0 0 1-3.06-3.422l50.379-96.238-4.843-3.397-68.879 131.836 19.766 15.2 10.984 3.51c25.164-47.378 47.988-92.566 68.473-135.565-3.033-1.366-6.64-3.311-10.818-5.838l-51.721 99.227z"/><g><path fill="none" stroke="#000" stroke-width="2" stroke-linecap="round" stroke-linejoin="round" d="M235.064 69.829c-3.033-1.366-6.64-3.311-10.818-5.838l-51.721 99.228c-4.079-1.067-7.508-2.838-10.281-5.313a19.319 19.319 0 0 1-3.06-3.422l50.379-96.238-4.843-3.397-68.879 131.836m99.223-116.856c4.286 1.904 7.429 2.647 9.427 2.228l4.912-9.921c-3.247.042-9.855-2.799-19.827-8.521l-5.33 10.377m14.267-32.299c-11.58-4.046-20.922.028-28.03 12.229L215.431 47a16.57 16.57 0 0 1 4.091-.006c4.23.579 7.582 2.786 10.055 6.62m19.826 8.521c2.175-15.18-1.456-25.327-10.891-30.442m-33.791 23.155l5.762-10.926M215.431 47l-5.867 11.245m-53.957 143.639c3.895 2.125 7.314 3.765 10.257 4.922 5.259 2.203 8.896 2.872 10.909 2.006M48.238 391.711c.417.361.897.733 1.44 1.118a.597.597 0 0 1 .209.181c1.869 1.419 4.15 2.684 6.843 3.797.025.036.176.095.45.175.202.13.44.237.715.316a.81.81 0 0 1 .225.089l.132.07m.561.099c.375.064.754.1 1.137.103l33.792-45.436c-2.671.784-7.641-.888-14.906-5.013-2.54-1.438-5.243-3.229-8.109-5.366m-22.489 49.867l18.736-54.277 68.868-150.75c2.196 4.136 8.784 9.204 19.766 15.2M49.888 393.01c-.682 2.062-1.043 4.037-1.084 5.921-.235 2.623.125 4.418 1.079 5.387.93.004 2.403-.893 4.417-2.691.205-.252 1.572-1.65 4.102-4.19m12.324-55.593c-2.042-1.352-3.292-2.821-3.752-4.41M244.491 72.056l-67.718 136.756-83.032 143.411"/></g></svg>

<?xml version="1.0" encoding="utf-8"?>
<!-- Generator: Adobe Illustrator 16.0.0, SVG Export Plug-In . SVG Version: 6.00 Build 0)  -->
<!DOCTYPE svg PUBLIC "-//W3C//DTD SVG 1.1//EN" "http://www.w3.org/Graphics/SVG/1.1/DTD/svg11.dtd">
<svg version="1.1" id="Layer_1" xmlns="http://www.w3.org/2000/svg" xmlns:xlink="http://www.w3.org/1999/xlink" x="0px" y="0px"
	 width="285px" height="427px" viewBox="0 0 285 427" enable-background="new 0 0 285 427" xml:space="preserve">
<g transform="matrix( 1, 0, 0, 1, 0,0) ">
	<g>
		<g id="Layer0_0_FILL">
			<path fill="#2E3432" d="M155.607,201.884l-19.766-15.2C138.038,190.82,144.626,195.888,155.607,201.884 M86.335,349.724
				l-7.5-2.514c7.266,4.125,12.235,5.797,14.906,5.013L86.335,349.724 M78.835,347.21l-11.861-9.776
				c0.46,1.589,1.71,3.059,3.752,4.41C73.592,343.981,76.295,345.771,78.835,347.21 M166.592,205.394l-10.984-3.51
				c3.895,2.125,7.314,3.765,10.257,4.922c5.259,2.203,8.896,2.872,10.909,2.006L166.592,205.394 M239.518,57.855l-9.941-4.242
				c9.972,5.722,16.58,8.563,19.827,8.521L239.518,57.855z"/>
			<path fill="#323836" d="M86.335,349.724l7.406,2.499l83.032-143.411c-2.013,0.866-5.65,0.197-10.909-2.006
				C141.549,252.439,115.041,300.079,86.335,349.724 M244.491,72.056c-1.998,0.42-5.141-0.323-9.427-2.228
				c-20.484,43-43.309,88.187-68.473,135.565l10.182,3.418L244.491,72.056 M239.518,57.855l9.886,4.28
				c2.175-15.18-1.456-25.327-10.891-30.442C242.907,40.13,243.242,48.85,239.518,57.855z"/>
			<path fill="#D3A665" d="M57.181,396.981c-0.274-0.08-0.425-0.139-0.45-0.175c-0.074,0.051-0.147,0.103-0.22,0.153
				c0.337,0.092,0.656,0.193,0.956,0.312l0.055-0.038c0.125,0.022,0.249,0.044,0.374,0.064
				C57.622,397.219,57.383,397.111,57.181,396.981 M49.679,392.829c0.088,0.048,0.157,0.107,0.209,0.181
				c1.869,1.419,4.15,2.684,6.843,3.797c0.025,0.036,0.176,0.095,0.45,0.175c0.202,0.13,0.44,0.237,0.715,0.316
				c0.062,0.012,0.137,0.041,0.225,0.089l0.132,0.07l0.148-0.021l0.483-0.012l-0.017,0.093l-0.056,0.039
				c0.375,0.064,0.754,0.1,1.137,0.103l33.792-45.436c-2.671,0.784-7.641-0.888-14.906-5.013c-2.54-1.438-5.243-3.229-8.109-5.366
				l-20.685,50.568l-1.803-0.701C48.655,392.072,49.136,392.444,49.679,392.829 M244.491,72.056l4.912-9.921
				c-3.247,0.042-9.855-2.799-19.827-8.521l-5.33,10.377c4.179,2.527,7.785,4.472,10.818,5.838
				C239.351,71.733,242.493,72.476,244.491,72.056 M210.482,43.922l-5.762,10.926l4.843,3.397L215.431,47L210.482,43.922
				 M162.244,157.906c2.773,2.475,6.202,4.245,10.281,5.313l51.721-99.228l5.33-10.377c-2.473-3.833-5.824-6.041-10.055-6.62
				l-0.086,1.043L162.244,157.906z"/>
			<path fill="#333333" d="M49.882,404.317c0.93,0.004,2.403-0.893,4.417-2.691c0.205-0.252,1.572-1.65,4.102-4.19l-0.148,0.021
				l-0.132-0.07c-0.087-0.048-0.163-0.077-0.225-0.089c-0.125-0.021-0.249-0.042-0.374-0.064l-0.055,0.038
				c-0.3-0.118-0.619-0.22-0.956-0.312c0.073-0.051,0.146-0.103,0.22-0.153c-2.693-1.113-4.974-2.378-6.843-3.797
				c-0.682,2.062-1.043,4.037-1.084,5.921C48.569,401.554,48.929,403.349,49.882,404.317z"/>
			<path fill="#FCE9BE" d="M48.238,391.711l1.803,0.701l20.685-50.568c-2.042-1.352-3.292-2.821-3.752-4.41L48.238,391.711
				 M159.185,154.484c0.899,1.28,1.92,2.42,3.06,3.422l57.191-109.868l0.086-1.043c-1.319-0.167-2.682-0.165-4.091,0.006
				l-5.867,11.245L159.185,154.484z"/>
			<path fill="#3C4441" d="M165.864,206.806c-2.942-1.157-6.362-2.797-10.257-4.922c-10.981-5.997-17.57-11.064-19.766-15.2
				l-68.868,150.75l11.861,9.776l7.5,2.514C115.041,300.079,141.549,252.439,165.864,206.806 M238.513,31.693
				c-11.58-4.046-20.922,0.028-28.03,12.229L215.431,47c1.409-0.171,2.771-0.173,4.091-0.006c4.23,0.579,7.582,2.786,10.055,6.62
				l9.941,4.242C243.242,48.85,242.907,40.13,238.513,31.693 M172.525,163.218c-4.079-1.067-7.508-2.838-10.281-5.313
				c-1.14-1.001-2.16-2.142-3.06-3.422l50.379-96.238l-4.843-3.397l-68.879,131.836l19.766,15.2l10.984,3.51
				c25.164-47.378,47.988-92.566,68.473-135.565c-3.033-1.366-6.64-3.311-10.818-5.838L172.525,163.218z"/>
		</g>
	</g>
	<g>
		<path id="Layer0_0_1_STROKES" fill="none" stroke="#000000" stroke-width="2" stroke-linecap="round" stroke-linejoin="round" d="
			M235.064,69.829c-3.033-1.366-6.64-3.311-10.818-5.838l-51.721,99.228c-4.079-1.067-7.508-2.838-10.281-5.313
			c-1.14-1.001-2.16-2.142-3.06-3.422l50.379-96.238l-4.843-3.397l-68.879,131.836 M235.064,69.829
			c4.286,1.904,7.429,2.647,9.427,2.228l4.912-9.921c-3.247,0.042-9.855-2.799-19.827-8.521l-5.33,10.377 M238.513,31.693
			c-11.58-4.046-20.922,0.028-28.03,12.229L215.431,47c1.409-0.171,2.771-0.173,4.091-0.006c4.23,0.579,7.582,2.786,10.055,6.62
			 M249.403,62.135c2.175-15.18-1.456-25.327-10.891-30.442 M204.721,54.848l5.762-10.926 M215.431,47l-5.867,11.245
			 M155.607,201.884c3.895,2.125,7.314,3.765,10.257,4.922c5.259,2.203,8.896,2.872,10.909,2.006 M48.238,391.711
			c0.417,0.361,0.897,0.733,1.44,1.118c0.088,0.048,0.157,0.107,0.209,0.181c1.869,1.419,4.15,2.684,6.843,3.797
			c0.025,0.036,0.176,0.095,0.45,0.175c0.202,0.13,0.44,0.237,0.715,0.316c0.062,0.012,0.137,0.041,0.225,0.089l0.132,0.07
			 M58.813,397.556c0.375,0.064,0.754,0.1,1.137,0.103l33.792-45.436c-2.671,0.784-7.641-0.888-14.906-5.013
			c-2.54-1.438-5.243-3.229-8.109-5.366 M48.238,391.711l18.736-54.277l68.868-150.75c2.196,4.136,8.784,9.204,19.766,15.2
			 M49.888,393.01c-0.682,2.062-1.043,4.037-1.084,5.921c-0.235,2.623,0.125,4.418,1.079,5.387c0.93,0.004,2.403-0.893,4.417-2.691
			c0.205-0.252,1.572-1.65,4.102-4.19 M70.726,341.844c-2.042-1.352-3.292-2.821-3.752-4.41 M244.491,72.056l-67.718,136.756
			L93.741,352.223"/>
	</g>
</g>
</svg>
